X:2935
T:the Song of the Chanter
O:ireland
R:March
M:4/4
K:AMix
A2A2 e2dB|A2A2 g2fg|a2e2 e2dB|g2fg edBd|\
A2A2 e2dB|A2A2 g2fg|a2e2 ecdB|A4 A4::
e2ef g2fg|edef g2fg|a2e2 e2dB|g2fg edBd|\
A2A2 e2dB|A2A2 g2fg|a2e2 ecdB|A4 A4:|
